public/avatar/body/92.svg

<svg xmlns:xlink="http://www.w3.org/1999/xlink" height="82" width="84.85" xmlns="http://www.w3.org/2000/svg"><g transform="translate(37.4 42.25)"><use height="38" transform="translate(-11.95 -17.45)" width="32.05" xlink:href="#a"/><use height="38.95" transform="translate(-12.45 -17.95)" width="33.05" xlink:href="#b"/><use height="39.9" transform="translate(-16.9 -14.45)" width="42.3" xlink:href="#c"/></g><defs><path d="M27.35 7.4q2.15 4.15 3.55 8.75 1.45 4.7 1.15 9.5-.35 4.95-4.2 8.1-3.8 3.2-8.75 4.05l-2.6.2q-3.6 0-7.05-1.15-4.65-1.6-7.1-5.5Q-.2 27.4.05 23q.2-4.4 2-9.3Q3.85 8.75 7 5.05 10.1 1.3 14.7.1l1.8-.1q1.9.05 3.7.8 4.75 2.05 7.15 6.6" fill="#fff" fill-rule="evenodd" transform="translate(-.05)" id="d"/><path d="M27.35 7.4Q24.95 2.85 20.2.8 17.55-.3 14.7.1 10.1 1.3 7 5.05q-3.15 3.7-4.95 8.65-1.8 4.9-2 9.3-.25 4.4 2.3 8.35 2.45 3.9 7.1 5.5 4.65 1.55 9.65.95 4.95-.85 8.75-4.05 3.85-3.15 4.2-8.1.3-4.8-1.15-9.5-1.4-4.6-3.55-8.75Z" fill="none" stroke="#333" stroke-linecap="round" stroke-linejoin="round" transform="translate(.45 .5)" id="e"/><use height="38" width="32.05" xlink:href="#d" id="a"/><use height="38.95" width="33.05" xlink:href="#e" id="b"/><g id="c"><path d="m15 4.15-11.05 9.9-7.7-4L15 4.15" fill="#e8ffff" fill-rule="evenodd" transform="translate(16.9 14.45)"/><path d="M14.75 3.9 3 7.75" fill="none" stroke="#55adb2" stroke-linecap="round" stroke-linejoin="round" transform="translate(16.9 14.45)"/><path d="M5.2 8.35.6 13.3l-7.55-9.45L5.2 8.35" fill="#e8ffff" fill-rule="evenodd" transform="translate(16.9 14.45)"/><path d="m-6.25 4.35 15 5.1" fill="none" stroke="#55adb2" stroke-linecap="round" stroke-linejoin="round" transform="translate(16.9 14.45)"/><path d="M4.15 12.45 19.1 1.05q2.25 2 .25 9.65-1.35 5.1-6.55 7.85-4.05 2.15-8.3 2.15l-.35-8.25" fill="#ffa8f0" fill-rule="evenodd" transform="translate(16.9 14.45)"/><path d="m5.5 13.4-1 7.3q-4.35 0-8.65-2.15-5.55-2.8-6.9-7.85-2-7.65.25-9.65L5.5 13.4" fill="#ffa8f0" fill-rule="evenodd" transform="translate(16.9 14.45)"/><path d="m-11.25 1.3.6-.6q.95-.45 2.4.5 3.05 1.95 6.4 5.1l5.45 5.65-4.7 1.7L-11.25 1.3M24.5 18.2q-2 3.6-12-1.4l6.25-13.6 1.4-.25Q21.8 3.1 23 4.8q2 2.9 2.35 7.3.3 4-.85 6.1m-34.8-15 6.25 13.6q-10 5-12 1.4-1.1-2.1-.8-6.1.35-4.4 2.3-7.3 1.95-2.75 4.25-1.6" fill="#ffa8f0" fill-rule="evenodd" transform="translate(16.9 14.45)"/><path d="M-6.4 3.7q.55.4 2.4 2.75L.6 10.8l-5.1-1.4q-3.35-.85-4.1-1.85-1.25-1.65-2.55-1.75h-2q-1.35-.1-1.4-1-.05-.75 1.2-1.3 1.5-.45 1.85-.7l-.4-.35Q-10.8.2-6.4 3.7" fill="#f7f2f6" fill-rule="evenodd" transform="translate(16.9 14.45)"/><path d="M.35 13.95q-3.95-5.1-6.45-7.5-4-3.9-4.75-3.65h-.75l.35-1.35q.5-1.25 1.35-.8Q-6.85 2.15-4 4.9q3.15 3 5.75 5.05l1.6 1.95-3 2.05" fill="#ff4fae" fill-rule="evenodd" transform="translate(16.9 14.45)"/><path d="M9.75-13.3q0 1.1-1.2 1.1t-1.2-1.1q0-1.15 1.2-1.15t1.2 1.15m-8 0q0 1.1-1.2 1.1t-1.2-1.1q0-1.15 1.2-1.15t1.2 1.15" fill="#3b3b3b" fill-rule="evenodd" transform="translate(16.9 14.45)"/><path d="M19.85 16.55Q18.25 23.2 14 23.2l-11.65.1Q-3 23.1-3 20.05q0-2.5 5.4-4.4 2.8-.95 12.1-1.35l5.35 2.25" fill="#ffa8f0" fill-rule="evenodd" transform="translate(16.9 14.45)"/><path d="m-8.4 14.8.95.3q8.55 2.05 8.55 4.95 0 3.15-7.85 3.15-4.25 0-5.9-6.65l4.25-1.75q-.25-.15.15-.3l1-.2-1.15.5" fill="#ffa8f0" fill-rule="evenodd" transform="translate(16.9 14.45)"/><path d="m9 9.95-.4-.5 2.75-3.75q3.2-4.3 7.3-3.6 4.9.9 4.65 3.75l-4.95-.2q-.9.4-1.5 1.95-.6 1.5-1.55 1.85l-6.3.5" fill="#f7f2f6" fill-rule="evenodd" transform="translate(16.9 14.45)"/><path d="m18.9 3.55-4.25 3.4-17.3 14.45-.6-4.1L15.6 1.8 18.1.7l1.75.5.1-.25.35.55q.3.8.2 1.45-1.1.25-1.6.6" fill="#ff4fae" fill-rule="evenodd" transform="translate(16.9 14.45)"/><path d="M20.6 2.05q-1.5-2.75-5-.25T-3.25 17.3l-.05 1.2q0 1.4.55 2.45.85 1.7 2.25 1.95l9.75.3q6.45 0 8.15-1.75l2.1-2.15" fill="none" stroke="#870f49" stroke-linecap="round" stroke-linejoin="round" transform="translate(16.9 14.45)"/><path d="M3.25 12.7q5.35 0 12.85-1.8-.6 2.9.75 6.05L3.5 17.4q-5.5.1-12.6-.2.95-1.05 1.2-2.9l.3-3.65q5.5 2.05 10.85 2.05" fill="#ff87ba" fill-rule="evenodd" transform="translate(16.9 14.45)"/><path d="M3.15 11.55Q-6.2 2.4-8.9.9q-1.45-.8-2.3-.2l-.55.75" fill="none" stroke="#870f49" stroke-linecap="round" stroke-linejoin="round" transform="translate(16.9 14.45)"/><path d="M16.1 10.9q-7.5 1.8-12.85 1.8T-7.6 10.65" fill="none" stroke="#b00053" stroke-linecap="round" stroke-linejoin="round" transform="translate(16.9 14.45)"/><path d="M16.15 11.8q-7.5 1.8-12.8 1.8-5.35 0-10.85-2.05" fill="none" stroke="#ffd9eb" stroke-linecap="round" stroke-linejoin="round" transform="translate(16.9 14.45)"/><path d="m17.1 17.55-26.25.75 1.9-2.8 11.5.6 11.6-1 1.25 2.45" fill="#ffd9eb" fill-rule="evenodd" transform="translate(16.9 14.45)"/><path d="m17.9 18.45-13.65.1-14.3.65" fill="none" stroke="#b00053" stroke-linecap="round" stroke-linejoin="round" transform="translate(16.9 14.45)"/><path d="m17.1 17.55-26.25.75" fill="none" stroke="#ff80b4" stroke-linecap="round" stroke-linejoin="round" transform="translate(16.9 14.45)"/><path d="m-7.8 8.95.45 2.05q.35 2.3-.2 3.7-1.55 4.05-2.5 4.5l-1.25.25q-4 .75-4.75-1.25-.55-1.5-.05-6.75t1.3-6.25l2.75-2.25.3-1.5" fill="none" stroke="#870f49" stroke-linecap="round" stroke-linejoin="round" transform="translate(16.9 14.45)"/><path d="M-16.4 13.55q-.1-5.4 4.35-5.75 4.8-.4 1.65 7.65-.95 2.5-3.35 2.2-2.5-.25-2.65-4.1" fill="#c973bb" fill-rule="evenodd" transform="translate(16.9 14.45)"/><path d="M16.25 8.95 15.8 11q-.35 2.3.2 3.7 1.55 4.05 2.5 4.5l1.25.25q4 .75 4.75-1.25.55-1.5.05-6.75t-1.3-6.25L20.5 2.95l-.2-1.45" fill="none" stroke="#870f49" stroke-linecap="round" stroke-linejoin="round" transform="translate(16.9 14.45)"/><path d="M24.85 9.8q.5 1.1.25 3.65-.35 3.55-3 4.1-2.6.6-3.6-2.5-1.2-3.65-.25-5.6.95-1.9 3.35-1.5 2.5.35 3.25 1.85" fill="#c973bb" fill-rule="evenodd" transform="translate(16.9 14.45)"/><path d="M-11.6 19.55q1.2 3.5 4.6 3.6 3.4.05 5.35-.95" fill="none" stroke="#870f49" stroke-linecap="round" stroke-linejoin="round" transform="translate(16.9 14.45)"/><path d="m27 28.9.05 4" fill="none" stroke="#750000" stroke-linecap="round" stroke-linejoin="round" stroke-width="2.5"/><path d="M13.5 12.85q0 1.4-1 2.35-.95 1-2.35 1-1.35 0-2.3-1-1-.95-1-2.35 0-1.35 1-2.3.95-1 2.3-1 1.4 0 2.35 1 1 .95 1 2.3" fill="#850000" fill-rule="evenodd" transform="translate(16.9 14.45)"/><path d="M12.9 12.85q0 2.75-2.75 2.75T7.4 12.85q0-2.75 2.75-2.75t2.75 2.75" fill="red" fill-rule="evenodd" transform="translate(16.9 14.45)"/><path d="M11.4 12.85q0 1.25-1.25 1.25-1.2 0-1.2-1.25 0-1.2 1.2-1.2 1.25 0 1.25 1.2" fill="#ffdbdb" fill-rule="evenodd" transform="translate(16.9 14.45)"/><path d="M7.15 22.05Q8.3 19.3 8.3 18.6l-.05-.15q0-.6 1.9-.6 1.95 0 1.95.6l-.05.1 1.05 2.05 1.3 2.55q.05.7-.5.6l-.9-.6.15 1.05-1.8.4q-.6-.05-1-1.1-.4.65-.45 1.2l-1.8-.35q-.45-.25-.45-1.45-.85 1.95-1.15.65l.65-1.5" fill="#fff4d6" fill-rule="evenodd" transform="translate(16.9 14.45)"/><path d="M24.05 36.5 23.4 38q.3 1.3 1.15-.65 0 1.2.45 1.45l1.8.35q.05-.55.45-1.2.4 1.05 1 1.1l1.8-.4-.15-1.05.9.6q.55.1.5-.6L30 35.05 28.95 33l.05-.1q0-.6-1.95-.6-1.9 0-1.9.6l.05.15q0 .7-1.15 3.45Z" fill="none" stroke="#870000" stroke-linecap="round" stroke-linejoin="round" stroke-width="1.5"/><path d="m10.1 14.45.05 4" fill="none" stroke="red" stroke-linecap="round" stroke-linejoin="round" transform="translate(16.9 14.45)"/><path d="m8.35 18.45.55-.1 3.05.15q.25.1 1.15 2.1l1.3 2.55q.05.7-.5.6l-.9-.6.15 1.05-1.8.4q-.6-.05-1-1.1-.4.65-.45 1.2l-1.8-.35q-.45-.25-.45-1.45-.85 1.95-1.15.65l.65-1.5q1.2-2.65 1.2-3.6" fill="#fff7f7" fill-rule="evenodd" transform="translate(16.9 14.45)"/><path d="M12.1 18.45q0 .6-1.95.6-1.9 0-1.9-.6t1.9-.6q1.95 0 1.95.6" fill="red" fill-rule="evenodd" transform="translate(16.9 14.45)"/></g></defs></svg>

<?xml version="1.0" encoding="UTF-8" standalone="no"?>
<svg xmlns:xlink="http://www.w3.org/1999/xlink" height="82.0px" width="84.85px" xmlns="http://www.w3.org/2000/svg">
  <g transform="matrix(1.0, 0.0, 0.0, 1.0, 37.4, 42.25)">
    <use height="38.0" transform="matrix(1.0, 0.0, 0.0, 1.0, -11.95, -17.45)" width="32.05" xlink:href="#sprite0"/>
    <use height="38.95" transform="matrix(1.0, 0.0, 0.0, 1.0, -12.45, -17.95)" width="33.05" xlink:href="#sprite1"/>
    <use height="39.9" transform="matrix(1.0, 0.0, 0.0, 1.0, -16.9, -14.45)" width="42.3" xlink:href="#shape2"/>
  </g>
  <defs>
    <g id="sprite0" transform="matrix(1.0, 0.0, 0.0, 1.0, -0.05, 0.0)">
      <use height="38.0" transform="matrix(1.0, 0.0, 0.0, 1.0, 0.05, 0.0)" width="32.05" xlink:href="#shape0"/>
    </g>
    <g id="shape0" transform="matrix(1.0, 0.0, 0.0, 1.0, -0.05, 0.0)">
      <path d="M27.35 7.4 Q29.5 11.55 30.9 16.15 32.35 20.85 32.05 25.65 31.7 30.6 27.85 33.75 24.05 36.95 19.1 37.8 L16.5 38.0 Q12.9 38.0 9.45 36.85 4.8 35.25 2.35 31.35 -0.2 27.4 0.05 23.0 0.25 18.6 2.05 13.7 3.85 8.75 7.0 5.05 10.1 1.3 14.7 0.1 L16.5 0.0 Q18.4 0.05 20.2 0.8 24.95 2.85 27.35 7.4" fill="#ffffff" fill-rule="evenodd" stroke="none"/>
    </g>
    <g id="sprite1" transform="matrix(1.0, 0.0, 0.0, 1.0, 0.45, 0.5)">
      <use height="38.95" transform="matrix(1.0, 0.0, 0.0, 1.0, -0.45, -0.5)" width="33.05" xlink:href="#shape1"/>
    </g>
    <g id="shape1" transform="matrix(1.0, 0.0, 0.0, 1.0, 0.45, 0.5)">
      <path d="M27.35 7.4 Q24.95 2.85 20.2 0.8 17.55 -0.3 14.7 0.1 10.1 1.3 7.0 5.05 3.85 8.75 2.05 13.7 0.25 18.6 0.05 23.0 -0.2 27.4 2.35 31.35 4.8 35.25 9.45 36.85 14.1 38.4 19.1 37.8 24.05 36.95 27.85 33.75 31.7 30.6 32.05 25.65 32.35 20.85 30.9 16.15 29.5 11.55 27.35 7.4 Z" fill="none" stroke="#333333" stroke-linecap="round" stroke-linejoin="round" stroke-width="1.0"/>
    </g>
    <g id="shape2" transform="matrix(1.0, 0.0, 0.0, 1.0, 16.9, 14.45)">
      <path d="M15.0 4.15 L3.95 14.05 -3.75 10.05 15.0 4.15" fill="#e8ffff" fill-rule="evenodd" stroke="none"/>
      <path d="M14.75 3.9 L3.0 7.75" fill="none" stroke="#55adb2" stroke-linecap="round" stroke-linejoin="round" stroke-width="1.0"/>
      <path d="M5.2 8.35 L0.6 13.3 -6.95 3.85 5.2 8.35" fill="#e8ffff" fill-rule="evenodd" stroke="none"/>
      <path d="M-6.25 4.35 L8.75 9.45" fill="none" stroke="#55adb2" stroke-linecap="round" stroke-linejoin="round" stroke-width="1.0"/>
      <path d="M4.15 12.45 L19.1 1.05 Q21.35 3.05 19.35 10.7 18.0 15.8 12.8 18.55 8.75 20.7 4.5 20.7 L4.15 12.45" fill="#ffa8f0" fill-rule="evenodd" stroke="none"/>
      <path d="M5.5 13.4 L4.5 20.7 Q0.15 20.7 -4.15 18.55 -9.7 15.75 -11.05 10.7 -13.05 3.05 -10.8 1.05 L5.5 13.4" fill="#ffa8f0" fill-rule="evenodd" stroke="none"/>
      <path d="M-11.25 1.3 L-10.65 0.7 Q-9.7 0.25 -8.25 1.2 -5.2 3.15 -1.85 6.3 L3.6 11.95 -1.1 13.65 -11.25 1.3" fill="#ffa8f0" fill-rule="evenodd" stroke="none"/>
      <path d="M24.5 18.2 Q22.5 21.8 12.5 16.8 L18.75 3.2 20.15 2.95 Q21.8 3.1 23.0 4.8 25.0 7.7 25.35 12.1 25.65 16.1 24.5 18.2" fill="#ffa8f0" fill-rule="evenodd" stroke="none"/>
      <path d="M-10.3 3.2 L-4.05 16.8 Q-14.05 21.8 -16.05 18.2 -17.15 16.1 -16.85 12.1 -16.5 7.7 -14.55 4.8 -12.6 2.05 -10.3 3.2" fill="#ffa8f0" fill-rule="evenodd" stroke="none"/>
      <path d="M-6.4 3.7 Q-5.85 4.1 -4.0 6.45 L0.6 10.8 -4.5 9.4 Q-7.85 8.55 -8.6 7.55 -9.85 5.9 -11.15 5.8 L-13.15 5.8 Q-14.5 5.7 -14.55 4.8 -14.6 4.05 -13.35 3.5 -11.85 3.05 -11.5 2.8 L-11.9 2.45 Q-10.8 0.2 -6.4 3.7" fill="#f7f2f6" fill-rule="evenodd" stroke="none"/>
      <path d="M0.35 13.95 Q-3.6 8.85 -6.1 6.45 -10.1 2.55 -10.85 2.8 L-11.6 2.8 -11.25 1.45 Q-10.75 0.2 -9.9 0.65 -6.85 2.15 -4.0 4.9 -0.85 7.9 1.75 9.95 L3.35 11.9 0.35 13.95" fill="#ff4fae" fill-rule="evenodd" stroke="none"/>
      <path d="M9.75 -13.3 Q9.75 -12.2 8.55 -12.2 7.35 -12.2 7.35 -13.3 7.35 -14.45 8.55 -14.45 9.75 -14.45 9.75 -13.3" fill="#3b3b3b" fill-rule="evenodd" stroke="none"/>
      <path d="M1.75 -13.3 Q1.75 -12.2 0.55 -12.2 -0.65 -12.2 -0.65 -13.3 -0.65 -14.45 0.55 -14.45 1.75 -14.45 1.75 -13.3" fill="#3b3b3b" fill-rule="evenodd" stroke="none"/>
      <path d="M19.85 16.55 Q18.25 23.2 14.0 23.2 L2.35 23.3 Q-3.0 23.1 -3.0 20.05 -3.0 17.55 2.4 15.65 5.2 14.7 14.5 14.3 L19.85 16.55" fill="#ffa8f0" fill-rule="evenodd" stroke="none"/>
      <path d="M-8.4 14.8 L-7.45 15.1 Q1.1 17.15 1.1 20.05 1.1 23.2 -6.75 23.2 -11.0 23.2 -12.65 16.55 L-8.4 14.8 Q-8.65 14.65 -8.25 14.5 L-7.25 14.3 -8.4 14.8" fill="#ffa8f0" fill-rule="evenodd" stroke="none"/>
      <path d="M9.0 9.95 L8.6 9.45 11.35 5.7 Q14.55 1.4 18.65 2.1 23.55 3.0 23.3 5.85 L18.35 5.65 Q17.45 6.05 16.85 7.6 16.25 9.1 15.3 9.45 L9.0 9.95" fill="#f7f2f6" fill-rule="evenodd" stroke="none"/>
      <path d="M18.9 3.55 L14.65 6.95 -2.65 21.4 -3.25 17.3 15.6 1.8 18.1 0.7 19.85 1.2 19.95 0.95 20.3 1.5 Q20.6 2.3 20.5 2.95 19.4 3.2 18.9 3.55" fill="#ff4fae" fill-rule="evenodd" stroke="none"/>
      <path d="M20.6 2.05 Q19.1 -0.7 15.6 1.8 12.1 4.3 -3.25 17.3 L-3.3 18.5 Q-3.3 19.9 -2.75 20.95 -1.9 22.65 -0.5 22.9 L9.25 23.2 Q15.7 23.2 17.4 21.45 L19.5 19.3" fill="none" stroke="#870f49" stroke-linecap="round" stroke-linejoin="round" stroke-width="1.0"/>
      <path d="M3.25 12.7 Q8.6 12.7 16.1 10.9 15.5 13.8 16.85 16.95 L3.5 17.4 Q-2.0 17.5 -9.1 17.2 -8.15 16.15 -7.9 14.3 L-7.6 10.65 Q-2.1 12.7 3.25 12.7" fill="#ff87ba" fill-rule="evenodd" stroke="none"/>
      <path d="M3.15 11.55 Q-6.2 2.4 -8.9 0.9 -10.35 0.1 -11.2 0.7 L-11.75 1.45" fill="none" stroke="#870f49" stroke-linecap="round" stroke-linejoin="round" stroke-width="1.0"/>
      <path d="M16.1 10.9 Q8.6 12.7 3.25 12.7 -2.1 12.7 -7.6 10.65" fill="none" stroke="#b00053" stroke-linecap="round" stroke-linejoin="round" stroke-width="1.0"/>
      <path d="M16.15 11.8 Q8.65 13.6 3.35 13.6 -2.0 13.6 -7.5 11.55" fill="none" stroke="#ffd9eb" stroke-linecap="round" stroke-linejoin="round" stroke-width="1.0"/>
      <path d="M17.1 17.55 L-9.15 18.3 -7.25 15.5 4.25 16.1 15.85 15.1 17.1 17.55" fill="#ffd9eb" fill-rule="evenodd" stroke="none"/>
      <path d="M17.9 18.45 L4.25 18.55 -10.05 19.2" fill="none" stroke="#b00053" stroke-linecap="round" stroke-linejoin="round" stroke-width="1.0"/>
      <path d="M17.1 17.55 L-9.15 18.3" fill="none" stroke="#ff80b4" stroke-linecap="round" stroke-linejoin="round" stroke-width="1.0"/>
      <path d="M-7.8 8.95 L-7.35 11.0 Q-7.0 13.3 -7.55 14.7 -9.1 18.75 -10.05 19.2 L-11.3 19.45 Q-15.3 20.2 -16.05 18.2 -16.6 16.7 -16.1 11.45 -15.6 6.2 -14.8 5.2 L-12.05 2.95 -11.75 1.45" fill="none" stroke="#870f49" stroke-linecap="round" stroke-linejoin="round" stroke-width="1.0"/>
      <path d="M-16.4 13.55 Q-16.5 8.15 -12.05 7.8 -7.25 7.4 -10.4 15.45 -11.35 17.95 -13.75 17.65 -16.25 17.4 -16.4 13.55" fill="#c973bb" fill-rule="evenodd" stroke="none"/>
      <path d="M16.25 8.95 L15.8 11.0 Q15.45 13.3 16.0 14.7 17.55 18.75 18.5 19.2 L19.75 19.45 Q23.75 20.2 24.5 18.2 25.05 16.7 24.55 11.45 24.05 6.2 23.25 5.2 L20.5 2.95 20.3 1.5" fill="none" stroke="#870f49" stroke-linecap="round" stroke-linejoin="round" stroke-width="1.0"/>
      <path d="M24.85 9.8 Q25.35 10.9 25.1 13.45 24.75 17.0 22.1 17.55 19.5 18.15 18.5 15.05 17.3 11.4 18.25 9.45 19.2 7.55 21.6 7.95 24.1 8.3 24.85 9.8" fill="#c973bb" fill-rule="evenodd" stroke="none"/>
      <path d="M-11.6 19.55 Q-10.4 23.05 -7.0 23.15 -3.6 23.2 -1.65 22.2" fill="none" stroke="#870f49" stroke-linecap="round" stroke-linejoin="round" stroke-width="1.0"/>
      <path d="M10.1 14.45 L10.15 18.45" fill="none" stroke="#750000" stroke-linecap="round" stroke-linejoin="round" stroke-width="2.5"/>
      <path d="M13.5 12.85 Q13.5 14.25 12.5 15.2 11.55 16.2 10.15 16.2 8.8 16.2 7.85 15.2 6.85 14.25 6.85 12.85 6.85 11.5 7.85 10.55 8.8 9.55 10.15 9.55 11.55 9.55 12.5 10.55 13.5 11.5 13.5 12.85" fill="#850000" fill-rule="evenodd" stroke="none"/>
      <path d="M12.9 12.85 Q12.9 15.6 10.15 15.6 7.4 15.6 7.4 12.85 7.4 10.1 10.15 10.1 12.9 10.1 12.9 12.85" fill="#ff0000" fill-rule="evenodd" stroke="none"/>
      <path d="M11.4 12.85 Q11.4 14.1 10.15 14.1 8.95 14.1 8.95 12.85 8.95 11.65 10.15 11.65 11.4 11.65 11.4 12.85" fill="#ffdbdb" fill-rule="evenodd" stroke="none"/>
      <path d="M7.15 22.05 Q8.3 19.3 8.3 18.6 L8.25 18.45 Q8.25 17.85 10.15 17.85 12.1 17.85 12.1 18.45 L12.05 18.55 13.1 20.6 14.4 23.15 Q14.45 23.85 13.9 23.75 L13.0 23.15 13.15 24.2 11.35 24.6 Q10.75 24.55 10.35 23.5 9.95 24.15 9.9 24.7 L8.1 24.35 Q7.65 24.1 7.65 22.9 6.8 24.85 6.5 23.55 L7.15 22.05" fill="#fff4d6" fill-rule="evenodd" stroke="none"/>
      <path d="M7.15 22.05 L6.5 23.55 Q6.8 24.85 7.65 22.9 7.65 24.1 8.1 24.35 L9.9 24.7 Q9.95 24.15 10.35 23.5 10.75 24.55 11.35 24.6 L13.15 24.2 13.0 23.15 13.9 23.75 Q14.45 23.85 14.4 23.15 L13.1 20.6 12.05 18.55 12.1 18.45 Q12.1 17.85 10.15 17.85 8.25 17.85 8.25 18.45 L8.3 18.6 Q8.3 19.3 7.15 22.05 Z" fill="none" stroke="#870000" stroke-linecap="round" stroke-linejoin="round" stroke-width="1.5"/>
      <path d="M10.1 14.45 L10.15 18.45" fill="none" stroke="#ff0000" stroke-linecap="round" stroke-linejoin="round" stroke-width="1.0"/>
      <path d="M8.35 18.45 L8.9 18.35 11.95 18.5 Q12.2 18.6 13.1 20.6 L14.4 23.15 Q14.45 23.85 13.9 23.75 L13.0 23.15 13.15 24.2 11.35 24.6 Q10.75 24.55 10.35 23.5 9.95 24.15 9.9 24.7 L8.1 24.35 Q7.65 24.1 7.65 22.9 6.8 24.85 6.5 23.55 L7.15 22.05 Q8.35 19.4 8.35 18.45" fill="#fff7f7" fill-rule="evenodd" stroke="none"/>
      <path d="M12.1 18.45 Q12.1 19.05 10.15 19.05 8.25 19.05 8.25 18.45 8.25 17.85 10.15 17.85 12.1 17.85 12.1 18.45" fill="#ff0000" fill-rule="evenodd" stroke="none"/>
    </g>
  </defs>
</svg>
